build/assets/images/customer.svg

<svg width="90" height="89" viewBox="0 0 90 89" fill="none" xmlns="http://www.w3.org/2000/svg">
<path d="M60.9943 45.0841C56.0876 41.3627 50.5291 38.8834 44.8026 37.7072C51.8845 34.9184 56.9032 28.0383 56.9032 20.0129C56.9032 9.52822 48.3337 1 37.797 1C27.2603 1 18.6908 9.52762 18.6908 20.0129C18.6908 27.8563 23.4849 34.6042 30.3124 37.5044C26.2922 38.2342 22.4 39.6387 18.8129 41.7327C4.78149 49.9206 1.66325 64.9939 1.01148 69.7955C0.914374 70.5152 1.44461 71.1644 2.16787 71.2254C2.84525 71.2764 3.44697 70.7998 3.53336 70.1304C4.12436 65.7042 7.00786 51.564 20.0968 43.9233C32.1057 36.9116 47.7779 38.2248 59.4757 47.1176C59.6997 47.2901 59.9648 47.3713 60.2299 47.3713C60.6017 47.3713 60.9687 47.2089 61.2183 46.9C61.677 46.3415 61.5698 45.5198 60.9943 45.0841ZM21.2383 20.0129C21.2383 10.9274 28.6669 3.53505 37.797 3.53505C46.9271 3.53505 54.3557 10.9274 54.3557 20.0129C54.3557 29.0984 46.9271 36.4907 37.797 36.4907C28.6669 36.4907 21.2383 29.0984 21.2383 20.0129Z" fill="url(#paint0_linear)" stroke="url(#paint1_linear)" stroke-miterlimit="10"/>
<path d="M88.979 64.8385C88.9349 64.0257 88.7651 63.2414 88.497 62.4908C88.1902 61.63 87.7463 60.8213 87.1922 60.0856C85.2304 57.4782 81.8595 55.7566 78.0389 55.7566C75.8316 55.7566 73.7756 56.3305 72.0533 57.3194C71.3491 57.7237 70.4781 57.7237 69.7739 57.3194C68.0521 56.3305 65.9961 55.7566 63.7882 55.7566C59.9682 55.7566 56.5973 57.4788 54.6349 60.0856C54.0814 60.8213 53.6376 61.6294 53.3302 62.4908C53.0615 63.2414 52.8917 64.0251 52.8476 64.8385C52.8309 65.0164 52.8256 65.1942 52.8256 65.3774C52.8256 67.3528 53.5047 69.1901 54.6671 70.7161C54.7141 70.7777 54.7642 70.837 54.8166 70.8945L55.7085 71.8763L69.1721 86.7848C70.1021 87.8146 71.7232 87.8146 72.6532 86.7848L86.1169 71.8763L87.0088 70.8945C87.0612 70.837 87.1112 70.7777 87.1583 70.7161C88.3206 69.1901 88.9998 67.3528 88.9998 65.3774C89.001 65.1942 88.995 65.0164 88.979 64.8385ZM72.6544 82.917C71.7244 83.9462 70.1033 83.9462 69.1733 82.917L61.8865 74.8483L57.7484 70.2643C57.4636 69.9952 57.2056 69.7112 56.9703 69.4083C56.9649 69.3988 56.9596 69.394 56.9536 69.3839C56.0767 68.2391 55.5667 66.8584 55.5667 65.3768C55.5667 64.3476 55.8133 63.376 56.2572 62.4908C56.7123 61.5719 57.3808 60.7544 58.2083 60.0856C59.6774 58.8881 61.634 58.1612 63.7876 58.1612C65.7989 58.1612 67.6351 58.7962 69.0655 59.8544C69.1698 59.9267 69.2681 60.0038 69.367 60.085L70.9124 61.3354L72.4578 60.085C72.5567 60.0032 72.655 59.9261 72.7592 59.8544C74.1897 58.7962 76.0258 58.1612 78.0371 58.1612C80.1908 58.1612 82.1479 58.8875 83.6165 60.0856C84.444 60.7544 85.113 61.5719 85.5676 62.4908C86.0114 63.376 86.2581 64.3476 86.2581 65.3768C86.2581 66.8584 85.7481 68.2391 84.8711 69.3839C84.8658 69.3934 84.8604 69.3982 84.8545 69.4083C84.6185 69.7112 84.3612 69.9952 84.0764 70.2643L79.9382 74.8483L72.6544 82.917Z" fill="url(#paint2_linear)" stroke="url(#paint3_linear)" stroke-miterlimit="10"/>
<defs>
<linearGradient id="paint0_linear" x1="31.252" y1="1" x2="31.252" y2="71.2292" gradientUnits="userSpaceOnUse">
<stop stop-color="#F16122"/>
<stop offset="1" stop-color="#FEBD33"/>
</linearGradient>
<linearGradient id="paint1_linear" x1="31.252" y1="1" x2="31.252" y2="71.2292" gradientUnits="userSpaceOnUse">
<stop stop-color="#F16122"/>
<stop offset="1" stop-color="#FEBD33"/>
</linearGradient>
<linearGradient id="paint2_linear" x1="70.9128" y1="55.7566" x2="70.9128" y2="87.5572" gradientUnits="userSpaceOnUse">
<stop stop-color="#F16122"/>
<stop offset="1" stop-color="#FEBD33"/>
</linearGradient>
<linearGradient id="paint3_linear" x1="70.9128" y1="55.7566" x2="70.9128" y2="87.5572" gradientUnits="userSpaceOnUse">
<stop stop-color="#F16122"/>
<stop offset="1" stop-color="#FEBD33"/>
</linearGradient>
</defs>
</svg>

<svg width="90" height="89" fill="none" xmlns="http://www.w3.org/2000/svg"><path d="M60.994 45.084c-4.906-3.721-10.465-6.2-16.191-7.377 7.082-2.789 12.1-9.669 12.1-17.694C56.903 9.528 48.333 1 37.797 1 27.26 1 18.691 9.528 18.691 20.013c0 7.843 4.794 14.591 11.621 17.491a35.263 35.263 0 00-11.5 4.229c-14.03 8.188-17.149 23.26-17.8 28.063a1.269 1.269 0 001.156 1.43 1.27 1.27 0 001.365-1.096c.591-4.426 3.475-18.566 16.564-26.207 12.009-7.011 27.68-5.698 39.379 3.195a1.268 1.268 0 001.743-.218 1.267 1.267 0 00-.225-1.816zM21.238 20.013c0-9.086 7.429-16.478 16.559-16.478s16.559 7.392 16.559 16.478c0 9.085-7.429 16.478-16.559 16.478s-16.559-7.393-16.559-16.478z" fill="url(#paint0_linear)" stroke="url(#paint1_linear)" stroke-miterlimit="10"/><path d="M88.979 64.838a8.299 8.299 0 00-.482-2.347 9.061 9.061 0 00-1.305-2.405c-1.962-2.608-5.332-4.33-9.153-4.33-2.207 0-4.263.575-5.986 1.563a2.293 2.293 0 01-2.28 0c-1.72-.989-3.777-1.562-5.985-1.562-3.82 0-7.19 1.722-9.153 4.329a9.086 9.086 0 00-1.305 2.405 8.274 8.274 0 00-.482 2.347 5.74 5.74 0 00-.022.54c0 1.975.679 3.812 1.841 5.338.047.062.097.121.15.178l.892.982 13.463 14.909a2.347 2.347 0 003.481 0l13.464-14.909.892-.982c.052-.057.102-.116.15-.178 1.162-1.526 1.84-3.363 1.84-5.339a5.577 5.577 0 00-.02-.538zM72.654 82.917a2.348 2.348 0 01-3.48 0l-7.288-8.069-4.138-4.584a7.525 7.525 0 01-.778-.856c-.005-.01-.01-.014-.016-.024-.877-1.145-1.387-2.526-1.387-4.007 0-1.03.246-2.001.69-2.886a7.24 7.24 0 011.951-2.405c1.47-1.198 3.426-1.925 5.58-1.925 2.01 0 3.847.635 5.278 1.693.104.073.202.15.301.231l1.545 1.25 1.546-1.25c.099-.082.197-.159.301-.23 1.43-1.059 3.267-1.694 5.278-1.694 2.154 0 4.11.727 5.58 1.925a7.233 7.233 0 011.95 2.405c.444.885.691 1.857.691 2.886 0 1.481-.51 2.862-1.387 4.007-.005.01-.01.014-.016.024a7.591 7.591 0 01-.779.856l-4.138 4.584-7.284 8.069z" fill="url(#paint2_linear)" stroke="url(#paint3_linear)" stroke-miterlimit="10"/><defs><linearGradient id="paint0_linear" x1="31.252" y1="1" x2="31.252" y2="71.229" gradientUnits="userSpaceOnUse"><stop stop-color="#F16122"/><stop offset="1" stop-color="#FEBD33"/></linearGradient><linearGradient id="paint1_linear" x1="31.252" y1="1" x2="31.252" y2="71.229" gradientUnits="userSpaceOnUse"><stop stop-color="#F16122"/><stop offset="1" stop-color="#FEBD33"/></linearGradient><linearGradient id="paint2_linear" x1="70.913" y1="55.757" x2="70.913" y2="87.557" gradientUnits="userSpaceOnUse"><stop stop-color="#F16122"/><stop offset="1" stop-color="#FEBD33"/></linearGradient><linearGradient id="paint3_linear" x1="70.913" y1="55.757" x2="70.913" y2="87.557" gradientUnits="userSpaceOnUse"><stop stop-color="#F16122"/><stop offset="1" stop-color="#FEBD33"/></linearGradient></defs></svg>
